src/assets/selectIcons/anello_2.svg

<svg xmlns="http://www.w3.org/2000/svg" viewBox="0 0 512 512"><path d="M0 0h512v512H0z"/><path fill="#fff" d="M102.6 34.33c-7.03 7-19.03 19.24-32.07 34.6 25.53 3.3 56.47 11.09 84.97 19.76 18.8 5.72 36.4 11.81 50.2 17.41 7 2.8 13 5.5 17.9 7.9 4.9 2.5 8.4 4.4 11.6 7.6l-12.6 12.8c-.1-.1-3-2.2-7.2-4.3-4.1-2.1-9.8-4.6-16.4-7.3-13.2-5.3-30.4-11.3-48.7-16.9-32.4-9.84-68.89-18.34-93.24-20.24-9.14 12.07-17.4 24.64-22.72 35.84 63.22 13.9 134.16 40.1 173.46 79.3l3.4 3.4-1 4.8s-3 15.4-3 33.8 3.8 38.8 13.5 48.5c9.7 9.8 30.2 13.6 48.6 13.6 18.4 0 33.8-3 33.8-3l4.8-1 3.4 3.4c39.2 39.3 65.4 110.1 79.3 173.4 11.2-5.3 23.7-13.6 35.8-22.7-1.9-24.4-10.3-60.8-20.2-93.1-5.6-18.4-11.6-35.6-16.9-48.8-2.7-6.6-5.2-12.3-7.3-16.4-2.1-4.2-4.2-7.1-4.3-7.2l12.8-12.6c3.2 3.2 5.1 6.7 7.6 11.6 2.4 4.9 5.1 10.9 7.9 17.9 5.6 13.8 11.7 31.4 17.4 50.2 8.6 28.4 16.4 59.4 19.7 85 15.4-13.1 27.6-25.1 34.6-32.1-12.7-64.7-26.1-151.4-62.6-212.2l-1.8-3 .7-3.4s3-15.4 3.1-33.8c0-8.3-.8-17-2.5-25 1.6 11-.2 23.4-4.4 36-7.6 22.8-23.4 47.5-45.6 69.8-22.3 22.2-47 38-69.8 45.6-22.8 7.6-45.2 7.3-59.4-6.9-14.1-14.1-14.5-36.6-6.8-59.3 7.5-22.8 23.3-47.5 45.6-69.8 22.3-22.3 46.9-38.1 69.8-45.6 12.3-4.19 24.6-5.97 35.4-4.51C371.6 95.74 363.1 95 355 95c-18.4 0-33.8 3.06-33.8 3.06l-3.5.68-2.9-1.79c-60.9-36.55-147.5-49.9-212.2-62.62zM371.9 115c-6.4-.1-13.9 1.2-22.3 4-14.2 4.7-30.3 13.7-46 26.3 5.1-3.1 10.2-5.7 15.2-7.8 7.9-3.2 15.4-5.1 22.5-5.2 7.2 0 14.5 2 19.7 7.3 1.7 1.7 3 3.5 4.1 5.5-9-3.9-19.5-1.8-26.4 5.1-9.4 9.4-9.4 24.6 0 34 5.3 5.2 12.6 7.7 20 6.8-6.8 13-17 26.6-29.9 39.4-15.9 16-33 27.8-48.6 34.3-7 2.9-13.7 4.7-20.2 5 7.6 1.5 17.4.6 29.1-3.3 19.4-6.4 42.2-20.7 62.7-41.3 20.6-20.6 34.9-43.3 41.3-62.7 6.4-19.3 4.8-33.7-2.5-40.9-4.1-4.1-10.5-6.4-18.7-6.5zM30.64 135.9c-.48 5.1.53 12.6 4.04 22.1 5.19 14.2 15.06 32.1 28.35 51.7C89.6 249 129.7 295.6 173.1 338.9c43.3 43.4 89.9 83.5 129.2 110.1 19.6 13.3 37.5 23.1 51.7 28.3 9.5 3.5 17 4.5 22.1 4-5.1-23.3-12.1-47.8-20.7-71.2-49.3-29.2-92.9-61.9-131.9-99.1-4.7-2.5-9.2-5.6-13.1-9.5a50.9 50.9 0 0 1-9.5-13.2c-37.2-38.9-69.8-82.5-99-131.7-23.36-8.7-47.92-15.7-71.26-20.7zM130 168c19.1 30.3 39.7 58.2 62 84-.2-4-.3-8-.3-11.8 0-15.7 1.7-26.8 2.6-32.2-16.1-15-38.7-28.5-64.3-40zm174 149.7c-5.4.9-16.5 2.6-32.2 2.6-3.8 0-7.8-.1-11.9-.4 25.9 22.4 53.8 43 84.1 62.1-11.5-25.5-25-48.2-40-64.3z"/></svg>

<?xml version="1.0" encoding="UTF-8" standalone="no"?>
<!DOCTYPE svg PUBLIC "-//W3C//DTD SVG 1.1//EN" "http://www.w3.org/Graphics/SVG/1.1/DTD/svg11.dtd">
<svg width="100%" height="100%" viewBox="0 0 512 512" version="1.1" xmlns="http://www.w3.org/2000/svg" xmlns:xlink="http://www.w3.org/1999/xlink" xml:space="preserve" xmlns:serif="http://www.serif.com/" style="fill-rule:evenodd;clip-rule:evenodd;stroke-linejoin:round;stroke-miterlimit:2;">
    <rect x="0" y="0" width="512" height="512" style="fill-rule:nonzero;"/>
    <path d="M102.6,34.33C95.57,41.33 83.57,53.57 70.53,68.93C96.06,72.23 127,80.02 155.5,88.69C174.3,94.41 191.9,100.5 205.7,106.1C212.7,108.9 218.7,111.6 223.6,114C228.5,116.5 232,118.4 235.2,121.6L222.6,134.4C222.5,134.3 219.6,132.2 215.4,130.1C211.3,128 205.6,125.5 199,122.8C185.8,117.5 168.6,111.5 150.3,105.9C117.9,96.06 81.41,87.56 57.06,85.66C47.92,97.73 39.66,110.3 34.34,121.5C97.56,135.4 168.5,161.6 207.8,200.8L211.2,204.2L210.2,209C210.2,209 207.2,224.4 207.2,242.8C207.2,261.2 211,281.6 220.7,291.3C230.4,301.1 250.9,304.9 269.3,304.9C287.7,304.9 303.1,301.9 303.1,301.9L307.9,300.9L311.3,304.3C350.5,343.6 376.7,414.4 390.6,477.7C401.8,472.4 414.3,464.1 426.4,455C424.5,430.6 416.1,394.2 406.2,361.9C400.6,343.5 394.6,326.3 389.3,313.1C386.6,306.5 384.1,300.8 382,296.7C379.9,292.5 377.8,289.6 377.7,289.5L390.5,276.9C393.7,280.1 395.6,283.6 398.1,288.5C400.5,293.4 403.2,299.4 406,306.4C411.6,320.2 417.7,337.8 423.4,356.6C432,385 439.8,416 443.1,441.6C458.5,428.5 470.7,416.5 477.7,409.5C465,344.8 451.6,258.1 415.1,197.3L413.3,194.3L414,190.9C414,190.9 417,175.5 417.1,157.1C417.1,148.8 416.3,140.1 414.6,132.1C416.2,143.1 414.4,155.5 410.2,168.1C402.6,190.9 386.8,215.6 364.6,237.9C342.3,260.1 317.6,275.9 294.8,283.5C272,291.1 249.6,290.8 235.4,276.6C221.3,262.5 220.9,240 228.6,217.3C236.1,194.5 251.9,169.8 274.2,147.5C296.5,125.2 321.1,109.4 344,101.9C356.3,97.71 368.6,95.93 379.4,97.39C371.6,95.74 363.1,95 355,95C336.6,95 321.2,98.06 321.2,98.06L317.7,98.74L314.8,96.95C253.9,60.4 167.3,47.05 102.6,34.33Z" style="fill:rgb(185,185,185);fill-rule:nonzero;"/>
    <path d="M371.9,115C380.1,115.1 386.5,117.4 390.6,121.5C397.9,128.7 399.5,143.1 393.1,162.4C386.7,181.8 372.4,204.5 351.8,225.1C331.3,245.7 308.5,260 289.1,266.4C277.4,270.3 267.6,271.2 260,269.7C266.5,269.4 273.2,267.6 280.2,264.7C295.8,258.2 312.9,246.4 328.8,230.4C341.7,217.6 351.9,204 358.7,191C351.3,191.9 344,189.4 338.7,184.2C329.3,174.8 329.3,159.6 338.7,150.2C345.6,143.3 356.1,141.2 365.1,145.1C364,143.1 362.7,141.3 361,139.6C355.8,134.3 348.5,132.3 341.3,132.3C334.2,132.4 326.7,134.3 318.8,137.5C313.8,139.6 308.7,142.2 303.6,145.3C319.3,132.7 335.4,123.7 349.6,119C358,116.2 365.5,114.9 371.9,115Z" style="fill:rgb(186,255,0);"/>
    <path d="M30.64,135.9C53.98,140.9 78.54,147.9 101.9,156.6C131.1,205.8 163.7,249.4 200.9,288.3C203.339,293.181 206.546,297.638 210.4,301.5C214.3,305.4 218.8,308.5 223.5,311C262.5,348.2 306.1,380.9 355.4,410.1C364,433.5 371,458 376.1,481.3C371,481.8 363.5,480.8 354,477.3C339.8,472.1 321.9,462.3 302.3,449C263,422.4 216.4,382.3 173.1,338.9C129.7,295.6 89.6,249 63.03,209.7C49.74,190.1 39.87,172.2 34.68,158C31.17,148.5 30.16,141 30.64,135.9ZM130,168C155.6,179.5 178.2,193 194.3,208C193.4,213.4 191.7,224.5 191.7,240.2C191.7,244 191.8,248 192,252C169.7,226.2 149.1,198.3 130,168ZM304,317.7C319,333.8 332.5,356.5 344,382C313.7,362.9 285.8,342.3 259.9,319.9C264,320.2 268,320.3 271.8,320.3C287.5,320.3 298.6,318.6 304,317.7Z" style="fill:rgb(119,112,112);"/>
</svg>
